X: 1
T: Up Leitrim
M: 6/8
L: 1/8
K: D
|:F'E'F' D'BA|BAB D'BA|F'E'F' D'BA|BD'F' E'2D':|
F'A'A' G'B'B'|F'A'A' A'F'D'|F'A'A' G'A'B'|A'F'D'E'2D'|
F'A'A' G'B'B'|F'A'A' A'F'D'|F'E'F' D'BA|BD'F' E'2D'|]